X:494
T: Caoyuan qingge
N: C1153
O: China,Qinghai
S: Zhongguo Minge Xuan, S. 248 (2)]
R: Qingge]
M: 2/4
L: 1/16
K: Bb
d2f2g2f=e | d2f2g2fd |
d2f2fg=e2 | d8 |
d2f2g2fd | c2dcB2c2 |
d2f2B2c2 | d2cdB2A2 | G8 |
d2f2g2fd | c2dcB2c2 |
d2f2B2c2 | d2cdB2A2 | G8

@@@ Tune index: 6495
